Yaru++/status/symbolic/touch-disabled-symbolic.svg

<svg height="16.015" width="16" xmlns="http://www.w3.org/2000/svg"><g fill="#2e3436"><path d="m8.0722656 0a6.996 6.996 0 0 0 -3.4882812.890625 1 1 0 0 0 -.5019532.671875l1.1875 1.1855469a1 1 0 0 0 .2890626-.1113281 4.997 4.997 0 0 1 4.9707032.0507812 4.996 4.996 0 0 1 2.470703 4.3125v1a1 1 0 0 0 2 0v-1a1 1 0 0 0 -.009766-.1367188 7 7 0 0 0 -3.451172-5.9023437 6.993 6.993 0 0 0 -3.4667964-.9609375zm-.0722656 3c-.7113268 0-1.3725782.199769-1.9492188.53125l1.5195313 1.5175781c.1385255-.0296388.2814469-.0488281.4296875-.0488281 1.116 0 2 .883 2 2v.4785156l2 2v-2.4785156a1 1 0 0 0 -.021484-.21875c-.116-2.095-1.856516-3.78125-3.978516-3.78125zm-6.5625 1.6191406a7.069 7.069 0 0 0 -.4257812 2.2128906 1 1 0 0 0 -.0117188.1679688v5.0625a1 1 0 0 0 2 0v-5.0625c0-.254.0245-.5068594.0625-.7558594zm2.5625 2.5625v.8183594a1 1 0 0 0 1.6171875.8007812zm.984375 2.8046875a1 1 0 0 0 -.984375 1.0136719v3a1 1 0 0 0 2 0v-3a1 1 0 0 0 -1.015625-1.0136719zm9.015625.0136719a1 1 0 0 0 -.902344.574219l1.328125 1.328125a1 1 0 0 0 .574219-.902344 1 1 0 0 0 -1-1zm-7 .181641v1.818359s-.0004687.595313.1445312 1.320312c.145.726.4124376 1.651719 1.1484376 2.386719a1 1 0 1 0 1.4140624-1.414062c-.2639999-.264-.4965625-.839281-.6015624-1.363281a5.008 5.008 0 0 1 -.0957032-.738282zm3.525391 3.52539c.187.325.432578.665.767578 1a1 1 0 0 0 .515625.28711z" fill="#808080" opacity=".5"/><path d="m1.531.47-1.061 1.06 14 14 1.062-1.062z"/><path d="m1.56.45499939-1.06 1.06000001 14 13.9999996 1.063-1.06z" fill="#808080"/></g></svg>

<?xml version="1.0" encoding="UTF-8" standalone="no"?>
<svg
   xmlns:dc="http://purl.org/dc/elements/1.1/"
   xmlns:cc="http://creativecommons.org/ns#"
   xmlns:rdf="http://www.w3.org/1999/02/22-rdf-syntax-ns#"
   xmlns:svg="http://www.w3.org/2000/svg"
   xmlns="http://www.w3.org/2000/svg"
   xmlns:sodipodi="http://sodipodi.sourceforge.net/DTD/sodipodi-0.dtd"
   xmlns:inkscape="http://www.inkscape.org/namespaces/inkscape"
   width="16"
   height="16.015"
   version="1.1"
   id="svg10"
   sodipodi:docname="touch-disabled-symbolic.svg"
   inkscape:version="0.92.4 (5da689c313, 2019-01-14)">
  <metadata
     id="metadata16">
    <rdf:RDF>
      <cc:Work
         rdf:about="">
        <dc:format>image/svg+xml</dc:format>
        <dc:type
           rdf:resource="http://purl.org/dc/dcmitype/StillImage" />
      </cc:Work>
    </rdf:RDF>
  </metadata>
  <defs
     id="defs14" />
  <sodipodi:namedview
     pagecolor="#ffffff"
     bordercolor="#666666"
     borderopacity="1"
     objecttolerance="10"
     gridtolerance="10"
     guidetolerance="10"
     inkscape:pageopacity="0"
     inkscape:pageshadow="2"
     inkscape:window-width="1443"
     inkscape:window-height="914"
     id="namedview12"
     showgrid="false"
     inkscape:zoom="14.736185"
     inkscape:cx="8"
     inkscape:cy="8.0074997"
     inkscape:window-x="0"
     inkscape:window-y="27"
     inkscape:window-maximized="0"
     inkscape:current-layer="g8" />
  <g
     fill="#2e3436"
     id="g8">
    <path
       style="font-feature-settings:normal;font-variant-alternates:normal;font-variant-caps:normal;font-variant-ligatures:normal;font-variant-numeric:normal;font-variant-position:normal;isolation:auto;mix-blend-mode:normal;shape-padding:0;text-decoration-color:#000;text-decoration-line:none;text-decoration-style:solid;text-indent:0;text-orientation:mixed;text-transform:none;white-space:normal;fill:#808080;fill-opacity:1;opacity:0.5"
       d="M 8.0722656 0 A 6.996 6.996 0 0 0 4.5839844 0.890625 A 1 1 0 0 0 4.0820312 1.5625 L 5.2695312 2.7480469 A 1 1 0 0 0 5.5585938 2.6367188 A 4.997 4.997 0 0 1 10.529297 2.6875 A 4.996 4.996 0 0 1 13 7 L 13 8 A 1 1 0 0 0 15 8 L 15 7 A 1 1 0 0 0 14.990234 6.8632812 A 7 7 0 0 0 11.539062 0.9609375 A 6.993 6.993 0 0 0 8.0722656 0 z M 8 3 C 7.2886732 3 6.6274218 3.199769 6.0507812 3.53125 L 7.5703125 5.0488281 C 7.708838 5.0191893 7.8517594 5 8 5 C 9.116 5 10 5.883 10 7 L 10 7.4785156 L 12 9.4785156 L 12 7 A 1 1 0 0 0 11.978516 6.78125 C 11.862516 4.68625 10.122 3 8 3 z M 1.4375 4.6191406 A 7.069 7.069 0 0 0 1.0117188 6.8320312 A 1 1 0 0 0 1 7 L 1 12.0625 A 1 1 0 0 0 3 12.0625 L 3 7 C 3 6.746 3.0245 6.4931406 3.0625 6.2441406 L 1.4375 4.6191406 z M 4 7.1816406 L 4 8 A 1 1 0 0 0 5.6171875 8.8007812 L 4 7.1816406 z M 4.984375 9.9863281 A 1 1 0 0 0 4 11 L 4 14 A 1 1 0 0 0 6 14 L 6 11 A 1 1 0 0 0 4.984375 9.9863281 z M 14 10 A 1 1 0 0 0 13.097656 10.574219 L 14.425781 11.902344 A 1 1 0 0 0 15 11 A 1 1 0 0 0 14 10 z M 7 10.181641 L 7 12 C 7 12 6.9995313 12.595313 7.1445312 13.320312 C 7.2895312 14.046312 7.5569688 14.972031 8.2929688 15.707031 A 1 1 0 1 0 9.7070312 14.292969 C 9.4430313 14.028969 9.2104687 13.453688 9.1054688 12.929688 A 5.008 5.008 0 0 1 9.0097656 12.191406 L 7 10.181641 z M 10.525391 13.707031 C 10.712391 14.032031 10.957969 14.372031 11.292969 14.707031 A 1 1 0 0 0 11.808594 14.994141 L 10.525391 13.707031 z "
       id="path2" />
    <path
       d="M1.531.47L.47 1.53l14 14 1.062-1.062z"
       id="path4" />
    <path
       d="M 1.56,0.45499939 0.5,1.5149994 l 14,13.9999996 1.063,-1.06 z"
       id="path6"
       inkscape:connector-curvature="0"
       style="fill:#808080;fill-opacity:1" />
  </g>
</svg>
